X: 1221
T: Angelina Baker
C:Stephen Foster (1826-1864)
B: australian traditional tunes wiki
M:4/4
L:1/8
R: Reel
Q: 1/4=100
K:D
V:1 
d|:"D"AB d>A Bd2d/B/|A/B/d d/B/A "G"B3d|"D" AB d>e fe d>e|1"D" fe"G"dB "D" A3d:|2"D"fe "G"dB "D" A3f/g/||
|:"D"af ed/e/ f/d/e/c/ df/g/|afed "G"B3f/g/|"D"af ed/e/ f/d/e/c/ dd/e/|1"D"fe"G"dB "D"A3d:|2"D"fe"G"dB"D"A3z||
% abcbook-tune_id 6342d53ad9a79f294612799f


% abcbook-boost 0
% abcbook-tablature 
% abcbook-transpose 
% abcbook-lastupdated 1665324354783
% abcbook-soundfonts 
% abcbook-repeats 1
% NFF Book 2017

